svgs/regular/highlighter.svg

<svg xmlns="http://www.w3.org/2000/svg" viewBox="0 0 576 512"><!--! Font Awesome Pro 6.0.0-alpha3 by @fontawesome - https://fontawesome.com License - https://fontawesome.com/license (Commercial License) --><path d="M527.9 79.25l-63.09-63.12C454.2 5.372 440.2 0 426.3 0c-12.97 0-25.82 4.5-36.17 13.75L103.7 261.8c-10.73 9.5-14.84 24.38-10.73 38l12.97 42.88l-33.8 34c-9.065 9.086-9.153 23.48-.6472 32.9l-65.08 65.24C-7.277 488.6 2.419 512 21.76 512h72.54c4.232 0 8.292-1.684 11.29-4.686l32.02-32.1c9.355 6.598 22.19 6.137 30.55-2.242l33.67-33.88l42.65 13c3.492 1.125 7.108 1.625 10.73 1.625c10.48 0 20.45-4.5 27.31-12.38l247.7-286.1C549.5 132.6 548.3 99.75 527.9 79.25zM251.3 403.1l-62.98-19.25l-37.16 37.25l-28.31-28.25l37.29-37.38L140.1 293.1l31.87-27.24l105.9 106.1L251.3 403.1zM493.9 123.3l-184 212.1L209.3 234.6l212.5-184.8C423 48.63 424.5 48 426.3 48c1.247 0 3.118 .375 4.864 2l62.98 63.25C496.6 115.8 496.7 119.9 493.9 123.3z"/></svg>

<svg xmlns="http://www.w3.org/2000/svg" viewBox="0 0 576 512"><!-- Font Awesome Pro 6.0.0-alpha2 by @fontawesome - https://fontawesome.com License - https://fontawesome.com/license (Commercial License) --><path d="M527.915 79.25L464.936 16.125C454.336 5.375 440.243 0 426.276 0C413.306 0 400.461 4.5 390.11 13.75L103.681 261.844C92.956 271.344 88.841 286.219 92.956 299.844L105.926 342.719L72.13 376.719C63.065 385.805 62.977 400.197 71.483 409.617L6.403 474.848C-7.276 488.557 2.413 512 21.756 512H94.295C98.527 512 102.588 510.314 105.581 507.312L137.608 475.211C146.964 481.809 159.797 481.348 168.157 472.969L201.828 439.094L244.479 452.094C247.971 453.219 251.588 453.719 255.204 453.719C265.68 453.719 275.657 449.219 282.516 441.344L530.284 154.375C549.49 132.625 548.367 99.75 527.915 79.25ZM251.338 403.969L188.36 384.719L151.196 421.969L122.887 393.719L160.175 356.344L140.97 293.094L172.837 265.85L278.691 371.949L251.338 403.969ZM493.869 123.25L309.863 335.318L209.334 234.557L421.786 49.75C423.033 48.625 424.53 48 426.276 48C427.523 48 429.394 48.375 431.14 50L494.118 113.25C496.612 115.75 496.737 119.875 493.869 123.25Z"/></svg>
